jsapp/svg-icons/report-menu.svg

<svg height="40" viewBox="0 0 40 40" width="40" xmlns="http://www.w3.org/2000/svg"><path d="m28 14h-16v-2h16zm0 3.999h-16v-2h16zm-6 4.001h-10v-2h10zm-6 4h-4v-2h4zm9.8875237-4.4465017 1.4915861 2.987 2.6095266-1.742v2.404l-2.4426847 1.63c-.2387737.159-.5314962.209-.810232.135-.2767377-.074-.509517-.263-.6373958-.519l-1.0030493-2.009-1.1718892 2.933c-.1248816.312-.3976231.54-.7263115.608-.3286885.07-.6693656-.035-.9081392-.273l-1.4186553-1.42-2.8702794 1.915v-2.404l2.4436837-1.63c.395625-.264.9241241-.212 1.2608049.125l.9261222.928 1.4356392-3.592c.1458617-.366.4925331-.611.88616-.628.3926279-.022.7592803.2.9351137.552z" fill-rule="evenodd"/></svg>

<?xml version="1.0" encoding="UTF-8"?>
<svg width="40px" height="40px" viewBox="0 0 40 40" version="1.1" xmlns="http://www.w3.org/2000/svg" xmlns:xlink="http://www.w3.org/1999/xlink">
    <!-- Generator: Sketch 50.2 (55047) - http://www.bohemiancoding.com/sketch -->
    <title>Icons/report-menu</title>
    <desc>Created with Sketch.</desc>
    <defs>
        <path d="M28,14 L12,14 L12,12 L28,12 L28,14 Z M28,17.999 L12,17.999 L12,15.999 L28,15.999 L28,17.999 Z M22,22 L12,22 L12,20 L22,20 L22,22 Z M16,26 L12,26 L12,24 L16,24 L16,26 Z M25.8875237,21.5534983 L27.3791098,24.5404983 L29.9886364,22.7984983 L29.9886364,25.2024983 L27.5459517,26.8324983 C27.307178,26.9914983 27.0144555,27.0414983 26.7357197,26.9674983 C26.458982,26.8934983 26.2262027,26.7044983 26.0983239,26.4484983 L25.0952746,24.4394983 L23.9233854,27.3724983 C23.7985038,27.6844983 23.5257623,27.9124983 23.1970739,27.9804983 C22.8683854,28.0504983 22.5277083,27.9454983 22.2889347,27.7074983 L20.8702794,26.2874983 L18,28.2024983 L18,25.7984983 L20.4436837,24.1684983 C20.8393087,23.9044983 21.3678078,23.9564983 21.7044886,24.2934983 L22.6306108,25.2214983 L24.06625,21.6294983 C24.2121117,21.2634983 24.5587831,21.0184983 24.95241,21.0014983 C25.3450379,20.9794983 25.7116903,21.2014983 25.8875237,21.5534983 Z" id="path-1"></path>
    </defs>
    <g id="Icons/report-menu" stroke="none" stroke-width="1" fill="none" fill-rule="evenodd">
        <mask id="mask-2" fill="white">
            <use xlink:href="#path-1"></use>
        </mask>
        <use id="Mask" fill="#000000" xlink:href="#path-1"></use>
    </g>
</svg>
